!!!!SEGMENT: pl-kk--kk-i-6--041_anonim--salve-sancta-parens.krn
!!!cenid: 16xx:1034
!!!COM: Anonim
!!!COM-rismID:
!!!CDT:
!!!CNT:
!!!OTL: Salve sancta parens
!!!PDT:
!!!AGN: Sacred
!!!SMS-siglum: PL-Kk
!!!SMS-shelfmark: Kk.I.6
!!!SMS-shelfwork: 041 W
!!!SMS-variant:
!!!SMS-altvar:
!!!NIFC-rismSourceID: 1001136518
!!!NIFC-islandoraID: pl-kk:1634
!!!URL-pdf-islandora: https://repozytorium.nifc.pl/islandora/object/pl-kk%3A1634/datastream/PDF/view
!!!URL-scan: https://polish.musicsources.pl/pl/lokalizacje/galeria/rekopisy/6133 @EN{Scan on Polish Music Herritage in Open Access Website} @PL{Skany w portalu Dziedzictwo Muzyki Polskiej w otwartym dostępie}
!!!ONB-nifc: UWAGA: C (skan 0064-0065, s. 125-126), T (skan 0176-0177, s. 157-158), B (skan 0285-0286, s. 153-154) Następny utwór: Benedicta et venerabilis
!!!AIN: 1 empty 1 tenor 1 vox
!!!key:
**kern	**text	**kern	**text	**kern	**text
*part3	*part3	*part2	*part2	*part1	*part1
*staff3	*staff3	*staff2	*staff2	*staff1	*staff1
*Iempty	*	*Itenor	*	*Ivox	*
*I"Baſsus	*	*I"Tenor.	*	*I"Cantus.	*
*I'B	*	*I'T	*	*I'S	*
*clefF4	*	*clefC4	*	*clefC1	*
*k[]	*	*k[]	*	*k[]	*
*d:	*	*d:	*	*d:	*
*M2/1	*	*M2/1	*	*M2/1	*
*met(C|)	*	*met(C|)	*	*met(C|)	*
=1-	=1-	=1-	=1-	=1-	=1-
!LO:TX:t=P:problem=inicjał "S" na pięciolinii przed kluczem	!	!LO:TX:t=P:problem=inicjał "S" na pięciolinii przed kluczem	!	!LO:TX:t=P:problem=inicjał "S" na pięciolinii przed kluczem	!
!LO:TX:t=P:problem="Intonatio" po lewej stronie pod pięciolinią, przed inicjałem	!	!LO:TX:t=P:problem="Intonatio" po lewej stronie pod pięciolinią, przed inicjałem	!	!LO:TX:t=P:problem="Intonatio" po lewej stronie pod pięciolinią, przed inicjałem	!
!LO:TX:b:t=Intonatio.	!	!LO:TX:b:t=Intonatio.	!	!LO:TX:b:t=Intonatio	!
!LO:TX:a:t=Miſsa de Conce\nptione B.V.M. \nsemp Immaculatae.	!	!LO:TX:t=P:problem=nad nazwą głosu zanotowano "+"	!	!LO:TX:t=P:problem=nad nazwą głosu zanotowano "+"	!
!LO:TX:t=P:problem=nad nazwą głosu zanotowano "+"	!	!LO:N:vis=0	!	!	!
00r	.	1.r	.	00r	.
.	.	2r	.	.	.
=2-	=2-	=2-	=2-	=2-	=2-
*	*	*lig	*	*	*
.	.	1D	Sal-	.	.
.	.	1F	.	.	.
*	*	*Xlig	*	*	*
=3-	=3-	=3-	=3-	=3-	=3-
*	*	*lig	*	*	*
!LO:N:vis=0	!	!	!	!	!
1r	.	1A	.	00r	.
*lig	*	*	*	*	*
!	!	!LO:TX:t=P:problem=kreska pseudotaktowa	!	!	!
1AA	Sal-	1c	.	.	.
*	*	*Xlig	*	*	*
=4-	=4-	=4-	=4-	=4-	=4-
*	*	*2\right	*	*	*
1C	.	2A/	-ve	.	.
.	.	2.A/	ſan	.	.
*Xlig	*	*	*	*	*
*lig	*	*	*	*	*
1D	.	.	.	.	.
!	!	!LO:TX:t=P:problem=4\middle	!	!	!
.	.	4D/	.	.	.
.	.	4A/	.	.	.
!	!	!LO:TX:t=P:problem=kreska pseudotaktowa	!	!	!
.	.	4G/	.	.	.
=5-	=5-	=5-	=5-	=5-	=5-
!	!	!	!	!LO:TX:t=P:problem=kreska pseudotaktowa	!
!	!	!	!	!LO:N:vis=0	!
1F	.	4F/	.	1r	.
.	.	4E/	.	.	.
.	.	4F/	.	.	.
!	!	!LO:TX:t=P:problem=kreska pseudotaktowa	!	!	!
.	.	4G/	.	.	.
*Xlig	*	*	*	*	*
*	*	*	*	*lig	*
!LO:TX:t=P:problem=kreska pseudotaktowa	!	!	!	!	!
1D	-ve	4A/	.	1d	Sal-
.	.	4G/	.	.	.
.	.	4F/	.	.	.
!	!	!LO:TX:t=P:problem=kreska pseudotaktowa	!	!	!
.	.	4E/	.	.	.
=6-	=6-	=6-	=6-	=6-	=6-
1D	ſan-	2.D/	.	1f	.
.	.	4E/	.	.	.
!	!	!LO:LB:g=original	!	!	!
*lig	*	*	*	*Xlig	*
*	*	*	*	*lig	*
1D	-cta	2F/	cta	1a	.
.	.	1F/	Pa-	.	.
=7-	=7-	=7-	=7-	=7-	=7-
!LO:TX:t=P:problem=kreska pseudotaktowa	!	!	!	!	!
1C	.	.	.	1cc	.
!	!	!LO:TX:t=P:problem=kreska pseudotaktowa	!	!	!
.	.	2E/	.	.	.
*Xlig	*	*	*	*Xlig	*
*lig	*	*	*	*2\right	*
1D	Pa-	2D/	-rens	2a\	-ve
.	.	2A/	ſan-	1dd\	ſal-
=8-	=8-	=8-	=8-	=8-	=8-
!	!	!LO:TX:t=P:problem=kreska pseudotaktowa	!	!	!
1E	.	1G	-cta	.	.
!	!	!	!	!LO:TX:t=P:problem=kreska pseudotaktowa	!
.	.	.	.	2cc#X\	.
*Xlig	*	*	*	*	*
*lig	*	*	*	*	*
1F	.	4F/	Pa-	2dd\	-ve
.	.	4E/	.	.	.
.	.	4F/	.	2.a\	ſan
!	!	!LO:TX:t=P:problem=kreska pseudotaktowa	!	!	!
.	.	4G/	.	.	.
=9-	=9-	=9-	=9-	=9-	=9-
1D	.	2A/	-rens	.	.
!	!	!	!	!LO:TX:t=P:problem=4\middle&colon; global	!
.	.	.	.	4g\	.
.	.	1A	Pa-	4a\	.
!	!	!	!	!LO:TX:t=P:problem=kreska pseudotaktowa	!
.	.	.	.	4b\	.
*Xlig	*	*	*	*	*
1C	.	.	.	2.ccny\	.
!	!	!LO:TX:t=P:problem=kreska pseudotaktowa	!	!	!
.	.	2G/	.	.	.
.	.	.	.	4b-X\	.
=10-	=10-	=10-	=10-	=10-	=10-
*custos:C	*	*	*	*	*
!LO:TX:t=P:problem=kreska pseudotaktowa	!	!	!	!	!
1D	-rens	2F,/	-rens,	2a\	.
!	!	!	!	!LO:TX:t=P:problem=kreska pseudotaktowa	!
.	.	2F/	e-	2f/	cta
!LO:LB:g=original	!	!	!	!LO:LB:g=original	!
*lig	*	*	*	*	*
1C	e-	1c	-ni-	1g	Pa-
=11-	=11-	=11-	=11-	=11-	=11-
!	!	!	!	!LO:TX:t=P:problem=kreska pseudotaktowa	!
1D	.	2A/	-xa	1f	-rens
!	!	!LO:TX:t=P::problem=kreska pseudotaktowa&colon;między nutą a kropką	!	!	!
.	.	2.A/	pu-	.	.
*Xlig	*	*	*	*	*
*lig	*	*	*	*	*
1F	-ni-	.	.	0r	.
.	.	4G/	.	.	.
.	.	4A/	.	.	.
.	.	4F/	.	.	.
=12-	=12-	=12-	=12-	=12-	=12-
1G	.	2.B-X\	-er-	.	.
!	!	!LO:TX:t=P:problem=kreska pseudotaktowa	!	!	!
.	.	4B-\	-pe-	.	.
*Xlig	*	*	*	*	*
!LO:TX:t=P:problem=kreska pseudotaktowa	!	!	!	!	!
1F	-xa	2A/	-ra	1f	e-
!	!	!LO:LB:g=original	!	!	!
.	.	2.A/	Re-	.	.
=13-	=13-	=13-	=13-	=13-	=13-
1F	pu-	.	.	1cc	-ni-
.	.	4G/	.	.	.
.	.	4A/	.	.	.
!	!	!LO:TX:t=P:problem=kreska pseudotaktowa	!	!	!
.	.	4B-X\	.	.	.
1.F	-er-	4c\	.	2a\	-xa
.	.	4B-\	.	.	.
!	!	!	!	!LO:TX:t=P:problem=kreska pseudotaktowa	!
.	.	4A\	.	2a\	pu-
.	.	4G/	.	.	.
=14-	=14-	=14-	=14-	=14-	=14-
.	.	2F/	-gem	2.b-X\	-er-
!	!	!LO:TX:t=P:problem=kreska pseudotaktowa	!	!	!
*2\right	*	*	*	*	*
2F\	-pe-	2F/	e-	.	.
.	.	.	.	4b-\	-pe-
*lig	*	*lig	*	*	*
!	!	!	!	!LO:TX:t=P:problem=kreska pseudotaktowa	!
1F	-ra	1c	-ni-	1a	-ra
=15-	=15-	=15-	=15-	=15-	=15-
1G	.	1B-X	.	4g/	Re-
.	.	.	.	4f/	.
.	.	.	.	4g/	.
.	.	.	.	4e/	.
!	!	!	!	!LO:TX:t=P:problem=kreska pseudotaktowa	!
*Xlig	*	*Xlig	*	*	*
!LO:TX:t=P:problem=kreska pseudotaktowa	!	!LO:TX:t=P:problem=kreska pseudotaktowa	!	!	!
1F	.	1A	-xa	4a\	.
.	.	.	.	4g\	.
.	.	.	.	4a\	.
.	.	.	.	4b-X\	.
=16-	=16-	=16-	=16-	=16-	=16-
*lig	*	*	*	*	*
1F	Re-	2r	.	4cc\	.
.	.	.	.	4b-\	.
.	.	2d\	pu-	4a\	.
!	!	!	!	!LO:TX:t=P:problem=kreska pseudotaktowa	!
.	.	.	.	4f/	.
1E	.	2d\	-er-	1g	.
.	.	4c#X\	-pe-	.	.
!	!	!LO:TX:t=P:problem=kreska pseudotaktowa	!	!	!
.	.	4c#\	-ra	.	.
*Xlig	*	*	*	*	*
=17-	=17-	=17-	=17-	=17-	=17-
*lig	*	*	*	*	*
1D	.	2d\	Re-	2f,/	-gem
.	.	2A/	.	1dd	Re-
1E	.	4G/	.	.	.
.	.	4F/	.	.	.
!	!	!	!	!LO:TX:t=P:problem=kreska pseudotaktowa	!
.	.	4G/	.	2cc#X\	.
!	!	!LO:TX:t=P:problem=kreska pseudotaktowa	!	!	!
.	.	4E/	.	.	.
!	!	!	!	!LO:LB:g=original	!
*Xlig	*	*	*	*	*
=18-	=18-	=18-	=18-	=18-	=18-
*lig	*	*	*	*	*
!	!	!	!	!LO:TX:t=P:problem=kreska pseudotaktowa	!
1F	-gem	1A	.	1dd	-gem,
!LO:TX:t=P:problem=kreska pseudotaktowa	!	!LO:TX:t=P:problem=kreska pseudotaktowa	!	!	!
1D	.	1A	-gem	1a	qui
*Xlig	*	*	*	*	*
=19-	=19-	=19-	=19-	=19-	=19-
00r	.	1A	qui	1ccny	Cae-
.	.	1cny	cae-	2a,\	-lum
!	!	!	!	!LO:TX:t=P:problem=kreska pseudotaktowa	!
.	.	.	.	2ee\	ter-
!	!	!LO:LB:g=original	!	!	!
=20-	=20-	=20-	=20-	=20-	=20-
*	*	*lig	*	*	*
!	!	!LO:TX:b:t=b	!	!	!
.	.	1Bn	-lum	1dd	-ram-
!	!	!LO:TX:b:t=c	!	!	!
!	!	!LO:TX:t=P:problem=kreska pseudotaktowa	!	!	!
.	.	1c	.	2cc\	-q(ue)
.	.	.	.	2.cc\	re
*	*	*Xlig	*	*	*
=21-	=21-	=21-	=21-	=21-	=21-
!LO:TX:t=P:problem=kreska pseudotaktowa	!	!	!	!	!
1r	.	2A/	ter-	.	.
.	.	.	.	4bn\	.
!	!	!	!	!LO:TX:t=P:problem=kreska pseudotaktowa	!
.	.	2.A/	-ram-	2a\	.
1D	qui	.	.	1dd	.
.	.	4G/	.	.	.
.	.	4F/	.	.	.
!	!	!LO:TX:t=P:problem=kreska pseudotaktowa	!	!	!
.	.	4G/	.	.	.
=22-	=22-	=22-	=22-	=22-	=22-
1F	Cae-	4A\	.	2cc\	git
.	.	4Bny\	.	.	.
!	!	!	!	!LO:TX:t=P:problem=kreska pseudotaktowa	!
.	.	1c	.	2a\	qui
*lig	*	*	*	*	*
!	!	!	!	!LO:TX:t=P:problem=kreska pseudotaktowa	!
1E	-lum	.	.	1cc	Cae-
!	!	!LO:TX:t=P:problem=kreska pseudotaktowa	!	!	!
.	.	2c\	-que	.	.
=23-	=23-	=23-	=23-	=23-	=23-
1F	.	4c\	re-	2a\	-lum
.	.	4B-X\	.	.	.
.	.	4c\	.	1a	ter-
!	!	!LO:TX:t=P:problem=kreska pseudotaktowa	!	!	!
.	.	4A\	.	.	.
*Xlig	*	*	*	*	*
!LO:LB:g=original	!	!	!	!	!
1D	ter-	4d\	.	.	.
.	.	4A\	.	.	.
.	.	2.d\	.	1a\	-ram-
=24-	=24-	=24-	=24-	=24-	=24-
*lig	*	*	*	*	*
1D	-ram-	.	.	.	.
.	.	4c\	.	.	.
.	.	1Bn	.	1bn	-q(ue)
1E	.	.	.	.	.
!	!	!	!	!LO:LB:g=original	!
!	!	!LO:TX:t=P:problem=kreska pseudotaktowa	!	!LO:TX:t=P:problem=kreska pseudotaktowa	!
.	.	2G/	-git	2.cc\	re-
*Xlig	*	*	*	*	*
=25-	=25-	=25-	=25-	=25-	=25-
*lig	*	*	*	*	*
1F	.	2.A/	ter-	.	.
.	.	.	.	4b\	.
!	!	!	!	!LO:TX:t=P:problem=kreska pseudotaktowa	!
.	.	.	.	2a\	.
.	.	4G/	.	.	.
1D	.	2F/	-ram-	1dd	.
!	!	!LO:TX:t=P:problem=kreska pseudotaktowa	!	!	!
.	.	2D/	-que	.	.
!	!	!LO:LB:g=original	!	!	!
*Xlig	*	*	*	*	*
=26-	=26-	=26-	=26-	=26-	=26-
*lig	*	*	*	*	*
1F	.	4F/	re-	2cc\	-git
.	.	4E/	.	.	.
.	.	4F/	.	1cc	re-
!	!	!LO:TX:t=P:problem=kreska pseudotaktowa	!	!	!
.	.	4G/	.	.	.
1D	.	2A/	.	.	.
!	!	!	!	!LO:TX:t=P:problem=kreska pseudotaktowa	!
.	.	2F/	.	2b\	.
*Xlig	*	*	*	*	*
=27-	=27-	=27-	=27-	=27-	=27-
*lig	*	*	*	*	*
1C	-que	2G/	.	2cc\	-git
!	!	!LO:TX:t=P:problem=kreska pseudotaktowa	!	!	!
.	.	2G/	-git	2cc\	in
!LO:TX:t=P:problem=kreska pseudotaktowa	!	!	!	!	!
1D	.	2D/	qui	2.a\	ſe-
.	.	1F/	Cae-	.	.
!	!	!	!	!LO:TX:t=P:problem=kreska pseudotaktowa	!
.	.	.	.	4g/	-cu-
*Xlig	*	*	*	*	*
=28-	=28-	=28-	=28-	=28-	=28-
*lig	*	*	*	*	*
1D	re-	.	.	4f/	-la
.	.	.	.	4e/	.
!	!	!LO:TX:t=P:problem=kreska pseudotaktowa	!	!	!
.	.	2D/	-lum	4f/	.
.	.	.	.	4g/	.
1F	.	2A/	ter-	2a\	.
.	.	1A\	-ram-	1a\	ſe-
*Xlig	*	*	*	*	*
=29-	=29-	=29-	=29-	=29-	=29-
*lig	*	*	*	*	*
1D	.	.	.	.	.
!	!	!LO:TX:t=P:problem=kreska pseudotaktowa	!	!LO:TX:t=P:problem=kreska pseudotaktowa	!
.	.	2Bn\	-q(ue)	2d/	-cu-
1C	.	4c\	.	1g	-lo-
.	.	4G/	re-	.	.
.	.	1c\	.	.	.
*Xlig	*	*	*	*	*
=30-	=30-	=30-	=30-	=30-	=30-
*lig	*	*	*	*	*
1D	-git	.	.	2f/	-rum
!	!	!LO:LB:g=original	!	!	!
.	.	2B\	.	4d/	ſe-
!	!	!	!	!LO:TX:t=P:problem=kreska pseudotaktowa	!
.	.	.	.	4d/	-cu-
!LO:TX:t=P:problem=kreska pseudotaktowa	!	!	!	!	!
1C	.	2c\	-git	2.g/	-lo-
.	.	2c\	in	.	.
.	.	.	.	4f/	.
!	!	!	!	!LO:LB:g=original	!
*Xlig	*	*	*	*	*
=31-	=31-	=31-	=31-	=31-	=31-
*lig	*	*	*	*	*
1C	in	2.c\	ſe-	4e/	.
.	.	.	.	4f/	.
.	.	.	.	4g/	.
!	!	!LO:TX:t=P:problem=kreska pseudotaktowa	!	!	!
.	.	4B\	-cu-	4e/	.
1D	.	2A,/	-la	1a	.
.	.	2d\	in	.	.
!	!	!LO:LB:g=original	!	!	!
*Xlig	*	*	*	*	*
=32-	=32-	=32-	=32-	=32-	=32-
*lig	*	*	*	*	*
!	!	!	!	!LO:TX:t=P:problem=kreska pseudotaktowa	!
1F	ſe-	2.d\	ſe-	1a	-rum
!	!	!LO:TX:t=P:problem=kreska pseudotaktowa	!	!	!
.	.	4c\	.	.	.
1G	.	2.Bn\	.	1r	.
.	.	4B\	-cu-	.	.
*Xlig	*	*	*	*	*
=33-	=33-	=33-	=33-	=33-	=33-
!	!	!LO:TX:t=P:problem=kreska pseudotaktowa	!	!	!
1D	-cu-	1A	-la	1d	qui
!LO:TX:t=P:problem=kreska pseudotaktowa	!	!	!	!	!
1D	-la	2r	.	1f	Cae-
.	.	1A\	ſe-	.	.
=34-	=34-	=34-	=34-	=34-	=34-
*lig	*	*	*	*	*
1D	ſe-	.	.	2d/	-lum
!	!	!	!	!LO:TX:t=P:problem=kreska pseudotaktowa	!
.	.	1Bn	-cu-	2f/	ter-
1E	.	.	.	1g	ram-
.	.	1c\	-lo-	.	.
*Xlig	*	*	*	*	*
!LO:LB:g=original	!	!	!	!	!
=35-	=35-	=35-	=35-	=35-	=35-
*lig	*	*	*	*	*
1F	.	.	.	1a	-q(ue)
!	!	!LO:TX:t=P:problem=kreska pseudotaktowa	!	!	!
.	.	2.d\	.	.	.
1G	.	.	.	1b-X	re-
.	.	4c\	.	.	.
.	.	4B-X\	.	.	.
!	!	!LO:TX:t=P:problem=kreska pseudotaktowa	!	!	!
.	.	4G/	.	.	.
*Xlig	*	*	*	*	*
=36-	=36-	=36-	=36-	=36-	=36-
1F	-cu-	4c\	.	2a\	-git
.	.	4B-X\	.	.	.
!	!	!	!	!LO:TX:t=P:problem=kreska pseudotaktowa	!
.	.	4A/	.	2cc\	in
.	.	4F/	.	.	.
*lig	*	*	*	*	*
1G	-lo-	4B-X\	.	2.b-X\	ſe-
.	.	4A\	.	.	.
.	.	4B-\	.	.	.
!	!	!LO:TX:t=P:problem=kreska pseudotaktowa	!	!	!
.	.	4G\	.	4b-\	-cu-
=37-	=37-	=37-	=37-	=37-	=37-
1F	.	4A/	.	2a\	-la
.	.	4G/	.	.	.
.	.	4A/	.	1dd	ſe-
.	.	4F/	.	.	.
*Xlig	*	*	*	*	*
1E	.	2G/	.	.	.
!	!	!LO:TX:t=P:problem=kreska pseudotaktowa	!	!LO:TX:t=P:problem=kreska pseudotaktowa	!
.	.	2E/	.	2cc#X\	-cu-
=38-	=38-	=38-	=38-	=38-	=38-
*lig	*	*	*	*	*
1D	.	2F/	-rum	2dd\	-la
!	!	!LO:LB:g=original	!	!	!
!	!	!LO:TX:t=P:problem=kreska pseudotaktowa	!	!	!
.	.	2d\	in	4f/	ſe-
.	.	.	.	4f/	-cu-
!	!	!	!	!LO:LB:g=original	!
1E	.	2d\	ſe-	2g/	-lo-
!	!	!	!	!LO:TX:t=P:problem=kreska pseudotaktowa	!
.	.	2c#X\	-cu-	2e/	.
*Xlig	*	*	*	*	*
=39-	=39-	=39-	=39-	=39-	=39-
1F	.	2d\	-la	2.a\	.
.	.	1A	se-	.	.
.	.	.	.	4g/	.
1D	.	.	.	4f/	.
.	.	.	.	4d/	.
.	.	2A/	-cu-	2dd\	.
=40-	=40-	=40-	=40-	=40-	=40-
0AA	.	0A	-lo-	2cc#X\	.
.	.	.	.	1dd	.
.	.	.	.	2cc#X\	-rum.
=41-	=41-	=41-	=41-	=41-	=41-
0D;>	-rum.	0A;>	-rum.	0dd;<	.
=42||-	=42||-	=42||-	=42||-	=42||-	=42||-
*M2/1	*	*M2/1	*	*M2/1	*
*met(C|)	*	*met(C|)	*	*met(C|)	*
!LO:TX:t=P:problem=kreska pseudotaktowa	!	!	!	!	!
0r	.	1F	E-	0r	.
.	.	1A	-ru-	.	.
=43-	=43-	=43-	=43-	=43-	=43-
!	!	!	!	!LO:TX:t=P:problem=kreska pseudotaktowa	!
1C	E-	1cny	-cta-	1r	.
1D	-ru-	2A,/	-vit	1f	E-
!	!	!LO:TX:t=P::problem=kreska pseudotaktowa&colon;między nutami połączonymi łukiem	!	!	!
.	.	(>2d\	cor	.	.
=44-	=44-	=44-	=44-	=44-	=44-
1F	-cta-	2c\)	.	1a	-ru-
.	.	2.c\	me-	.	.
!LO:TX:t=P:problem=kreska pseudotaktowa	!	!	!	!	!
1F	-vit	.	.	2ccny\	-cta-
.	.	4B-X\	.	.	.
!	!	!LO:TX:t=P::problem=kreska pseudotaktowa&colon;między nutą a kropką	!	!	!
.	.	2.A/	.	4cc\	-vit
!	!	!	!	!LO:TX:t=P:problem=kreska pseudotaktowa	!
.	.	.	.	4cc\	cor
!LO:LB:g=original	!	!	!	!	!
=45-	=45-	=45-	=45-	=45-	=45-
1F	cor	.	.	4cc\	me-
.	.	4G/	.	4b-X\	.
.	.	2F/	.	4a\	.
.	.	.	.	4g\	.
!	!	!LO:LB:g=original	!	!LO:LB:g=original	!
*2\right	*	*	*	*	*
2F\	me-	2F/	-um	2f/	.
!LO:TX:t=P:problem=kreska pseudotaktowa	!	!LO:TX:t=P:problem=kreska pseudotaktowa	!	!LO:TX:t=P:problem=kreska pseudotaktowa	!
2F\	-um	2.f\	ver-	2f/	-um
=46-	=46-	=46-	=46-	=46-	=46-
1F	Ver-	.	.	2.ff\	ver-
.	.	4e\	.	.	.
.	.	4d\	.	.	.
!	!	!	!	!LO:TX:t=P:problem=kreska pseudotaktowa	!
.	.	4c\	.	4ee\	.
!LO:TX:t=P:problem=kreska pseudotaktowa	!	!	!	!	!
1G	-bum	4B-X\	.	4dd\	.
.	.	4A\	.	4cc\	.
.	.	4G/	-bum	4b-X\	.
!	!	!LO:TX:t=P:problem=kreska pseudotaktowa	!	!LO:TX:t=P:problem=kreska pseudotaktowa	!
.	.	4A/	.	4a\	.
=47-	=47-	=47-	=47-	=47-	=47-
1G	bo-	1B-X	bo-	4g/	.
.	.	.	.	4g/	-bum
!	!	!	!	!LO:TX:t=P:problem=kreska pseudotaktowa	!
.	.	.	.	2g/	bo-
!LO:TX:t=P:problem=kreska pseudotaktowa	!	!LO:TX:t=P:problem=kreska pseudotaktowa	!	!	!
1F	-num	1A	-num	2.a\	.
.	.	.	.	4g/	.
=48-	=48-	=48-	=48-	=48-	=48-
1D	di-	1r	.	2f/	-num
.	.	.	.	1a	di-
!LO:TX:t=P:problem=kreska pseudotaktowa	!	!	!	!	!
1F	-co	2r	.	.	.
!	!	!	!	!LO:TX:t=P:problem=kreska pseudotaktowa	!
.	.	1A\	di-	2cc\	-co
=49-	=49-	=49-	=49-	=49-	=49-
1F	e-	.	.	1cc	e-
!	!	!LO:TX:t=P:problem=kreska pseudotaktowa	!	!	!
.	.	2c\	-co	.	.
!LO:TX:t=P:problem=kreska pseudotaktowa	!	!	!	!	!
1F	-go	1c	e-	2a\	-go
.	.	.	.	1cc\	o-
=50-	=50-	=50-	=50-	=50-	=50-
!	!	!LO:TX:t=P:problem=kreska pseudotaktowa	!	!	!
2F\	o-	1A	-go	.	.
2F\	-pe-	.	.	4cc\	-pe-
!	!	!	!	!LO:TX:t=P:problem=kreska pseudotaktowa	!
.	.	.	.	4cc\	-ra
!LO:TX:t=P:problem=kreska pseudotaktowa	!	!	!	!	!
1F	-ra	2B-X\	o-	2dd\	o-
.	.	4B-\	-pe-	4dd\	-pe-
!	!	!LO:TX:t=P:problem=kreska pseudotaktowa	!	!LO:TX:t=P:problem=kreska pseudotaktowa	!
.	.	4B-\	-ra	4dd\	-ra
!	!	!	!	!LO:LB:g=original	!
=51-	=51-	=51-	=51-	=51-	=51-
*lig	*	*	*	*	*
1F	me-	4A\	me-	4cc\	me-
.	.	4Bny\	.	4bny\	.
.	.	4c\	.	4a\	.
!	!	!	!	!LO:TX:t=P:problem=kreska pseudotaktowa	!
.	.	4A\	.	4g\	.
1D	.	1B-X	.	4f/	.
.	.	.	.	4e/	.
.	.	.	.	4f/	.
!	!	!	!	!LO:TX:t=P:problem=kreska pseudotaktowa	!
.	.	.	.	4g/	.
*Xlig	*	*	*	*	*
!	!	!LO:PB:g=original	!	!	!
=52-	=52-	=52-	=52-	=52-	=52-
!LO:TX:t=P:problem=kreska pseudotaktowa	!	!	!	!	!
1F	-a	1A	-a	4a\	.
.	.	.	.	4g\	.
.	.	.	.	4a\	.
.	.	.	.	4b\	.
*lig	*	*	*	*	*
1E	Re-	2.G/	Re-	2cc\	.
!	!	!	!	!LO:TX:t=P:problem=kreska pseudotaktowa	!
.	.	.	.	2cc\	-a
.	.	4F/	.	.	.
=53-	=53-	=53-	=53-	=53-	=53-
1C	.	2E/	-gi	1cc	Re-
.	.	1A	o-	.	.
*Xlig	*	*	*	*	*
!LO:LB:g=original	!	!	!	!	!
*lig	*	*	*	*	*
1D	.	.	.	2a\	-gi
.	.	4A/	-pe-	1dd\	o-
.	.	4A/	-ra	.	.
=54-	=54-	=54-	=54-	=54-	=54-
1E	.	1G	me-	.	.
!	!	!	!	!LO:TX:t=P:problem=kreska pseudotaktowa	!
.	.	.	.	2cc#X\	-pe-
*Xlig	*	*	*	*	*
*lig	*	*	*	*	*
1F	.	2F/	-a	2dd\	-ra
.	.	1d\	o-	4a\	me-
!	!	!	!	!LO:TX:t=P:problem=kreska pseudotaktowa	!
.	.	.	.	4a\	-a
=55-	=55-	=55-	=55-	=55-	=55-
1D	.	.	.	4d/	Re-
.	.	.	.	4e/	.
.	.	4d\	-pe-	4f/	.
!	!	!	!	!LO:TX:t=P:problem=pod nutą znajduje się łuczek	!
.	.	4d\	-ra	4g/	.
*Xlig	*	*	*	*	*
0AA	.	4c#X\	me-	1a	.
.	.	4c#\	-a	.	.
.	.	1d\	Re-	.	.
=56-	=56-	=56-	=56-	=56-	=56-
.	.	.	.	0.al;>	-gi.
.	.	2c#X\	.	.	.
!	!	!LO:TX:t=P:problem=fermata bez kropki	!	!	!
0D;>	-gi.	0d;<	-gi.	.	.
.	.	.	.	.	.
!	!	!	!	!LO:PB:g=original	!
=57||	=57||	=57||	=57||	=57||	=57||
*M3/2	*	*M3/2	*	*M3/2	*
2.AA/	Glo-	2.c#X\	Glo-	2.a\	Glo-
!LO:TX:t=P:problem=4\middle	!	!	!	!	!
4AA/	-ri-	4c#\	-ri-	4a\	-ri-
!LO:TX:t=P:problem=kreska pseudotaktowa	!	!	!	!	!
2AA/	-a	2c#\	-a	2a\	-a
=58-	=58-	=58-	=58-	=58-	=58-
2D/	Pa-	2d\	Pa-	2a\	Pa-
2D/	-tri	2d\	-tri	2a\	-tri
!LO:TX:t=P:problem=kreska pseudotaktowa	!	!	!	!	!
2D/	et	2d\	et	2a\	et
!	!	!LO:LB:g=original	!	!	!
=59-	=59-	=59-	=59-	=59-	=59-
2.GG/	Fi-	2.Bn\	Fi-	2.bn\	Fi-
4GG/	-li-	4B\	-li-	4b\	-li-
2GG/	-o	2B\	-o	2b\	-o
=60-	=60-	=60-	=60-	=60-	=60-
1C	et	1G	et	1cc	et
!LO:TX:t=P:problem=kreska pseudotaktowa	!	!	!	!	!
2C/	ſpi-	2G/	ſpi-	2cc\	ſpi-
=61-	=61-	=61-	=61-	=61-	=61-
2.FF/	-ri-	2.A\	-ri-	2.a\	-ri-
4FF/	-tu-	4B-X\	-tu-	4a\	-tu-
2FF/	-i	2cny\	-i	2a\	-i
=62-	=62-	=62-	=62-	=62-	=62-
*col	*	*	*	*	*
1BB-X	ſan-	2.B-X\	ſan-	2.dd\	ſan-
.	.	4c\	.	4cc\	.
!LO:LB:g=original	!	!LO:TX:t=P:problem=zaczerniona nuta	!	!	!
<1GG/	.	1d\	.	<1b-X\	.
=63-	=63-	=63-	=63-	=63-	=63-
1AA	.	2d\	.	1a	.
=64-	=64-	=64-	=64-	=64-	=64-
.	.	2c#X\	-cto.	.	.
*Xcol	*	*	*	*	*
!LO:TX:t=P:problem=kreska pseudotaktowa	!	!	!	!	!
1.D	-cto	1d	.	1a	-cto
=65-	=65-	=65-	=65-	=65-	=65-
.	.	2r	.	2r	.
00.r	.	00.r	.	1r	.
=66-	=66-	=66-	=66-	=66-	=66-
.	.	.	.	2a\	ſi-
.	.	.	.	2bn\	-cut
!	!	!	!	!LO:LB:g=original	!
.	.	.	.	<1cc	e-
=67-	=67-	=67-	=67-	=67-	=67-
.	.	.	.	2a\	-rat
.	.	.	.	<1bn	in
=68-	=68-	=68-	=68-	=68-	=68-
.	.	.	.	2cc\	prin-
.	.	.	.	2.dd\	-ci-
=69-	=69-	=69-	=69-	=69-	=69-
.	.	.	.	4cc\	-pi-
00.r	.	2r	.	2b\	-o
.	.	2A\	ſi-	2a\	et
=70-	=70-	=70-	=70-	=70-	=70-
.	.	2Bn\	-cut	2cc\	nunc
!	!	!	!	!LO:TX:t=P:problem=kreska pseudotaktowa	!
.	.	1cny	e-	2b\	.
.	.	.	.	4a\	et
.	.	.	.	4b\	.
=71-	=71-	=71-	=71-	=71-	=71-
.	.	2A\	-rat	4cc\	ſem-
.	.	.	.	4dd\	.
.	.	1B	in	4ee\	.
!	!	!	!	!LO:TX:t=P:problem=kreska pseudotaktowa	!
.	.	.	.	4cc\	.
.	.	.	.	4dd\	.
.	.	.	.	4cc\	.
=72-	=72-	=72-	=72-	=72-	=72-
!	!	!	!	!LO:TX:t=P:problem=kreska pseudotaktowa	!
.	.	2c\	prin-	1b	.
.	.	2.d\	-ci-	.	.
.	.	.	.	2a\	-per
.	.	4c\	-pi-	.	.
=73-	=73-	=73-	=73-	=73-	=73-
.	.	2B\	-o	2dd\	et
!	!	!LO:LB:g=original	!	!	!
!LO:TX:t=P:problem=kreska pseudotaktowa	!	!	!	!LO:TX:t=P:problem=kreska pseudotaktowa	!
1r	.	2A\	et	2dd\	in
.	.	2B\	nunc	2.cc\	ſe-
=74-	=74-	=74-	=74-	=74-	=74-
!LO:N:vis=2	!	!	!	!	!
1r	.	2c\	.	.	.
.	.	.	.	4b\	-cu-
.	.	1d	et	2a\	-la
2D\	ſi-	.	.	<1a	ſe-
=75-	=75-	=75-	=75-	=75-	=75-
!LO:TX:t=P:problem=kreska pseudotaktowa	!	!	!	!	!
2E\	-cut	2c#X\	ſem-	.	.
1F	e-	2d\	-per	2e/	-cu-
!	!	!	!	!LO:LB:g=original	!
.	.	2d\	et	1a	-lo-
=76-	=76-	=76-	=76-	=76-	=76-
2D\	-rat	2d\	in	.	.
1E	in	2.cn\	ſe-	2a\	-rum
.	.	.	.	0r	.
=77-	=77-	=77-	=77-	=77-	=77-
.	.	4B\	-cu-	.	.
!LO:TX:t=P:problem=kreska pseudotaktowa	!	!	!	!	!
2F\	prin-	2A\	-la	.	.
.	.	.	.	.	.
2.G\	-ci-	<1B	ſe-	.	.
=78-	=78-	=78-	=78-	=78-	=78-
4F\	-pi-	.	.	.	.
!LO:TX:t=P:problem=kreska pseudotaktowa	!	!	!	!	!
2E\	-o	2c\	-cu-	1r	.
2D\	et	2.d\	-lo-	.	.
2F\	nunc	.	.	2dd\	et
=79-	=79-	=79-	=79-	=79-	=79-
.	.	4c\	.	.	.
!LO:TX:t=P:problem=kreska pseudotaktowa	!	!	!	!	!
2G\	.	2B\	-rum	2dd\	in
2A\	et	<1.c	a-	2.cc\	ſe-
2AA/	ſem-	.	.	.	.
=80-	=80-	=80-	=80-	=80-	=80-
.	.	.	.	4b\	-cu-
1A	.	.	.	2a\	-la
.	.	1.B	.	1b	ſe-
2A\	.	.	.	.	.
=81-	=81-	=81-	=81-	=81-	=81-
2G#X\	.	.	.	2b\	-cu-
!LO:LB:g=original	!	!	!	!	!
2A\	-per	2A/	-men	1cc	-lo-
<2A\	et	2c\	et	.	.
=82-	=82-	=82-	=82-	=82-	=82-
!LO:TX:t=P:problem=kreska pseudotaktowa	!	!	!	!	!
2A\	in	2c\	in	2a\	-rum
2.Gn\	ſe-	2.B\	ſe-	1b	a-
=83-	=83-	=83-	=83-	=83-	=83-
4F\	-cu-	4A/	-cu-	.	.
!LO:TX:t=P:problem=kreska pseudotaktowa	!	!	!	!	!
2E\	-la	2G/	-la	2cc\	.
!	!	!LO:LB:g=original	!	!	!
>1F	ſe-	1c	ſe-	1a	.
=84-	=84-	=84-	=84-	=84-	=84-
.	.	.	.	.	.
2G\	-cu-	2B\	-cu-	2b\	.
<1A	-lo-	4e\	-lo-	1cc	.
.	.	4d\	.	.	.
.	.	4c\	.	.	.
=85-	=85-	=85-	=85-	=85-	=85-
.	.	4B\	.	.	.
!	!	!LO:TX:t=P:problem=zaczerniona nuta	!	!	!
1D\	-rum	1A\	-rum	1dd\	.
.	.	.	.	.	.
1E	a-	2A/	a-	1b	.
=86-	=86-	=86-	=86-	=86-	=86-
!	!	!LO:TX:t=P:problem=łuczek pod nutą	!	!	!
.	.	2G#X/	.	.	.
!LO:TX:t=P:problem=kreska pseudotaktowa	!	!	!	!	!
<1.AA	-men	1.A	-men	2a\	-men
.	.	.	.	2a\	et
=87-	=87-	=87-	=87-	=87-	=87-
.	.	.	.	2a\	in
2r	.	1.A	.	2.f/	ſe-
2D/	et	.	.	.	.
=88-	=88-	=88-	=88-	=88-	=88-
.	.	.	.	4e/	-cu-
!LO:TX:t=P:problem=kreska pseudotaktowa	!	!	!	!	!
2D/	in	.	.	2d/	-la
!	!	!	!	!LO:LB:g=original	!
2.C/	ſe-	1r	.	2.e/	ſe-
=89-	=89-	=89-	=89-	=89-	=89-
4BB-X/	-cu-	.	.	4e/	-cu-
!LO:TX:t=P:problem=kreska pseudotaktowa	!	!LO:N:vis=2	!	!	!
2AA/	-la	1r	.	2.a\	-lo-
<1BB-X	ſe-	.	.	.	.
.	.	.	.	4a\	-rum
.	.	2d\	et	2a\	a-
=90-	=90-	=90-	=90-	=90-	=90-
!	!	!	!	!LO:TX:t=P:problem=łuczek nad nutą	!
2BB-/	-cu-	2d\	in	2g\	.
!LO:PB:g=original	!	!	!	!	!
1AA	-lo-	2.c\	ſe-	1a	-men
.	.	4B\	-cu-	.	.
=91-	=91-	=91-	=91-	=91-	=91-
!LO:TX:t=P:problem=kreska pseudotaktowa	!	!	!	!	!
2AA/	-rum	2A\	-la	2cc\	a-
<1.GG	a-	2.B-X\	ſe-	1.b-X	.
.	.	4c\	-cu-	.	.
=92-	=92-	=92-	=92-	=92-	=92-
.	.	2.d\	-lo-	.	.
<1.AA	.	.	.	1.a	.
.	.	4d\	-rum	.	.
.	.	2d\	a-	.	.
.	.	2c#X\	.	.	.
=93-	=93-	=93-	=93-	=93-	=93-
!LO:TX:t=P:problem="Salve ùt sugra" zapisane po prawej stronie, między dwiema podwójnymi kreskami	!	!	!	!	!
!LO:TX:a:t=Salve ùt sugra.	!	!	!	!	!
!	!	!	!	!LO:TX:t=P:problem=górna fermata bez kropki	!
!	!	!LO:N:vis=0	!	!LO:N:vis=0	!
0.D;;	-men	0.d;>	-men.	0.a;;	-men.
==	==	==	==	==	==
*-	*-	*-	*-	*-	*-
!!!system-decoration: [(s1,s2,s3)]
!!!RDF**kern: > = above
!!!RDF**kern: < = below
!!!RDF**kern: l = terminal long
!!!EED: Mateusz Mrugas
!!!EEV: 2021-03-24
!!!ENC: Anastazja Marusiak
!!!END: 2021-03-10
